X:0553
T:Saw away 'lias Scrape away.
M:12/8
L:1/8
Q:3/8=120
I: :: ||
N:printed with one sharp and all but one high f naturaled
N:bars 6 and 10 are printed |=fgf c2f  A2F F2A| i.e. low F sharp
Z:Jack Campin * www.campin.me.uk * 2009
K:G Mixolydian
d2d B2g d2B G2B|cdc A2f cdc A2f|d2d B2g d2B G2 B|ABA d2A B2G G3:|
B2B G2g B2g d2g|fgf c2f A2F F2A|BcB G2g B2g d2^f|gag d2g B2G G2A|
B2B G2g B2g d2e|fgf c2f A2F F2A|gag b2g e2g d2 B|cdc d2A B2G G3|]

